public/flags/AO.svg

<svg fill="none" height="53" viewBox="0 0 61 53" width="61" xmlns="http://www.w3.org/2000/svg" xmlns:xlink="http://www.w3.org/1999/xlink"><filter id="a" color-interpolation-filters="sRGB" filterUnits="userSpaceOnUse" height="19.8333" width="59" x="1" y="25.6667"><feFlood flood-opacity="0" result="BackgroundImageFix"/><feColorMatrix in="SourceAlpha" type="matrix" values="0 0 0 0 0 0 0 0 0 0 0 0 0 0 0 0 0 0 127 0"/><feOffset/><feColorMatrix type="matrix" values="0 0 0 0 0 0 0 0 0 0 0 0 0 0 0 0 0 0 0.06 0"/><feBlend in2="BackgroundImageFix" mode="normal" result="effect1_dropShadow"/><feBlend in="SourceGraphic" in2="effect1_dropShadow" mode="normal" result="shape"/></filter><filter id="b" color-interpolation-filters="sRGB" filterUnits="userSpaceOnUse" height="22.6667" width="59" x="1" y="3"><feFlood flood-opacity="0" result="BackgroundImageFix"/><feColorMatrix in="SourceAlpha" type="matrix" values="0 0 0 0 0 0 0 0 0 0 0 0 0 0 0 0 0 0 127 0"/><feOffset/><feColorMatrix type="matrix" values="0 0 0 0 0 0 0 0 0 0 0 0 0 0 0 0 0 0 0.06 0"/><feBlend in2="BackgroundImageFix" mode="normal" result="effect1_dropShadow"/><feBlend in="SourceGraphic" in2="effect1_dropShadow" mode="normal" result="shape"/></filter><filter id="c" color-interpolation-filters="sRGB" filterUnits="userSpaceOnUse" height="18.8825" width="12.9368" x="24.5872" y="15.0744"><feFlood flood-opacity="0" result="BackgroundImageFix"/><feColorMatrix in="SourceAlpha" type="matrix" values="0 0 0 0 0 0 0 0 0 0 0 0 0 0 0 0 0 0 127 0"/><feOffset dy="2.12143"/><feColorMatrix type="matrix" values="0 0 0 0 0 0 0 0 0 0 0 0 0 0 0 0 0 0 0.06 0"/><feBlend in2="BackgroundImageFix" mode="normal" result="effect1_dropShadow"/><feBlend in="SourceGraphic" in2="effect1_dropShadow" mode="normal" result="shape"/></filter><linearGradient id="d" gradientUnits="userSpaceOnUse" x1="1" x2="1" y1="3" y2="45.5"><stop offset="0" stop-color="#ff323e"/><stop offset="1" stop-color="#fd0d1b"/></linearGradient><mask id="e" height="43" maskUnits="userSpaceOnUse" width="59" x="1" y="3"><rect fill="#fff" height="42.5" rx="4.24286" width="59" x="1" y="3"/></mask><rect fill="#fff" height="42.5" rx="4.24286" width="59" x="1" y="3"/><g mask="url(#e)"><path d="m1 3h59v42.5h-59z" fill="url(#d)"/><g filter="url(#a)"><path clip-rule="evenodd" d="m1 45.5h59v-19.8333h-59z" fill="#262626" fill-rule="evenodd"/></g><g filter="url(#b)"><path clip-rule="evenodd" d="m1 25.6667h59v-22.6667h-59z" fill="#dd2137" fill-rule="evenodd"/></g><g filter="url(#c)"><path clip-rule="evenodd" d="m35.131 27.5498c.3505-.62.6288-1.2949.8205-2.0165 1.2048-4.5345-1.4635-9.1953-5.9599-10.4103-.7494-.2025-1.5196.246-1.7204 1.0017-.2008.7558.2439 1.5326.9933 1.7351 2.9976.81 4.7764 3.9172 3.9732 6.9402-.1102.415-.2634.8069-.4535 1.172l-4.3145-2.9007c-.6455-.434-1.5177-.2581-1.948.3929-.4304.651-.256 1.5305.3896 1.9645l3.9557 2.6595c-1.2884.8417-2.9116 1.1509-4.5112.7187-.7493-.2025-1.5196.246-1.7204 1.0018-.2008.7557.2439 1.5325.9933 1.735 2.8091.7591 5.6671-.0064 7.7103-1.7935l2.0008 1.3452c.6456.434 1.5177.2581 1.9481-.3929.4303-.651.2559-1.5306-.3896-1.9646zm-7.4405-6.1331c.7758 0 1.4047-.6343 1.4047-1.4167s-.6289-1.4167-1.4047-1.4167c-.7759 0-1.4048.6343-1.4048 1.4167s.6289 1.4167 1.4048 1.4167z" fill="#f8d84b" fill-rule="evenodd"/></g></g></svg>

<svg width="61" height="53" viewBox="0 0 61 53" fill="none" xmlns="http://www.w3.org/2000/svg">
<rect x="1" y="3" width="59" height="42.5" rx="4.24286" fill="white"/>
<mask id="mask0" mask-type="alpha" maskUnits="userSpaceOnUse" x="1" y="3" width="59" height="43">
<rect x="1" y="3" width="59" height="42.5" rx="4.24286" fill="white"/>
</mask>
<g mask="url(#mask0)">
<rect x="1" y="3" width="59" height="42.5" fill="url(#paint0_linear)"/>
<g filter="url(#filter0_d)">
<path fill-rule="evenodd" clip-rule="evenodd" d="M1 45.5H60V25.6667H1V45.5Z" fill="#262626"/>
</g>
<g filter="url(#filter1_d)">
<path fill-rule="evenodd" clip-rule="evenodd" d="M1 25.6667H60V3H1V25.6667Z" fill="#DD2137"/>
</g>
<g filter="url(#filter2_d)">
<path fill-rule="evenodd" clip-rule="evenodd" d="M35.131 27.5498C35.4815 26.9298 35.7598 26.2549 35.9515 25.5333C37.1563 20.9988 34.488 16.338 29.9916 15.123C29.2422 14.9205 28.472 15.369 28.2712 16.1247C28.0704 16.8805 28.5151 17.6573 29.2645 17.8598C32.2621 18.6698 34.0409 21.777 33.2377 24.8C33.1275 25.215 32.9743 25.6069 32.7842 25.972L28.4697 23.0713C27.8242 22.6373 26.952 22.8132 26.5217 23.4642C26.0913 24.1152 26.2657 24.9947 26.9113 25.4287L30.867 28.0882C29.5786 28.9299 27.9554 29.2391 26.3558 28.8069C25.6065 28.6044 24.8362 29.0529 24.6354 29.8087C24.4346 30.5644 24.8793 31.3412 25.6287 31.5437C28.4378 32.3028 31.2958 31.5373 33.339 29.7502L35.3398 31.0954C35.9854 31.5294 36.8575 31.3535 37.2879 30.7025C37.7182 30.0515 37.5438 29.1719 36.8983 28.7379L35.131 27.5498ZM27.6905 21.4167C28.4663 21.4167 29.0952 20.7824 29.0952 20C29.0952 19.2176 28.4663 18.5833 27.6905 18.5833C26.9146 18.5833 26.2857 19.2176 26.2857 20C26.2857 20.7824 26.9146 21.4167 27.6905 21.4167Z" fill="#F8D84B"/>
</g>
</g>
<defs>
<filter id="filter0_d" x="1" y="25.6667" width="59" height="19.8333" filterUnits="userSpaceOnUse" color-interpolation-filters="sRGB">
<feFlood flood-opacity="0" result="BackgroundImageFix"/>
<feColorMatrix in="SourceAlpha" type="matrix" values="0 0 0 0 0 0 0 0 0 0 0 0 0 0 0 0 0 0 127 0"/>
<feOffset/>
<feColorMatrix type="matrix" values="0 0 0 0 0 0 0 0 0 0 0 0 0 0 0 0 0 0 0.06 0"/>
<feBlend mode="normal" in2="BackgroundImageFix" result="effect1_dropShadow"/>
<feBlend mode="normal" in="SourceGraphic" in2="effect1_dropShadow" result="shape"/>
</filter>
<filter id="filter1_d" x="1" y="3" width="59" height="22.6667" filterUnits="userSpaceOnUse" color-interpolation-filters="sRGB">
<feFlood flood-opacity="0" result="BackgroundImageFix"/>
<feColorMatrix in="SourceAlpha" type="matrix" values="0 0 0 0 0 0 0 0 0 0 0 0 0 0 0 0 0 0 127 0"/>
<feOffset/>
<feColorMatrix type="matrix" values="0 0 0 0 0 0 0 0 0 0 0 0 0 0 0 0 0 0 0.06 0"/>
<feBlend mode="normal" in2="BackgroundImageFix" result="effect1_dropShadow"/>
<feBlend mode="normal" in="SourceGraphic" in2="effect1_dropShadow" result="shape"/>
</filter>
<filter id="filter2_d" x="24.5872" y="15.0744" width="12.9368" height="18.8825" filterUnits="userSpaceOnUse" color-interpolation-filters="sRGB">
<feFlood flood-opacity="0" result="BackgroundImageFix"/>
<feColorMatrix in="SourceAlpha" type="matrix" values="0 0 0 0 0 0 0 0 0 0 0 0 0 0 0 0 0 0 127 0"/>
<feOffset dy="2.12143"/>
<feColorMatrix type="matrix" values="0 0 0 0 0 0 0 0 0 0 0 0 0 0 0 0 0 0 0.06 0"/>
<feBlend mode="normal" in2="BackgroundImageFix" result="effect1_dropShadow"/>
<feBlend mode="normal" in="SourceGraphic" in2="effect1_dropShadow" result="shape"/>
</filter>
<linearGradient id="paint0_linear" x1="1" y1="3" x2="1" y2="45.5" gradientUnits="userSpaceOnUse">
<stop stop-color="#FF323E"/>
<stop offset="1" stop-color="#FD0D1B"/>
</linearGradient>
</defs>
</svg>
